build/Karasa-Jaga/scalable/actions/application-exit-symbolic.svg

<svg height="16" width="16" xmlns="http://www.w3.org/2000/svg"><g enable-background="new" fill="#bebebe" transform="translate(-544.4992 -81.00012)"><path d="m3.0625 1.8125c-.4155 0-.75.418125-.75.9375v3.2460938l1.1875.0039062v-3h10v10h-10v-3l-1.1875-.0039062v3.2539062c0 .519375.3345.9375.75.9375h10.875c.4155 0 .75-.418125.75-.9375v-10.5c0-.519375-.3345-.9375-.75-.9375z" transform="translate(544.4992 81.00012)"/><path d="m552.21094 85.53125-.85547.855469 1.36914 1.36914a.37503574.37503574 0 0 1 -.26758.640625l-7.08398-.01953v1.25l7.08789.01953a.37503574.37503574 0 0 1 .26367.640625l-1.36914 1.367188.85547.855469 3.4707-3.507813z"/></g></svg>

<?xml version="1.0" encoding="UTF-8" standalone="no"?>
<!-- Created with Inkscape (http://www.inkscape.org/) -->

<svg
   xmlns:dc="http://purl.org/dc/elements/1.1/"
   xmlns:cc="http://creativecommons.org/ns#"
   xmlns:rdf="http://www.w3.org/1999/02/22-rdf-syntax-ns#"
   xmlns:svg="http://www.w3.org/2000/svg"
   xmlns="http://www.w3.org/2000/svg"
   xmlns:sodipodi="http://sodipodi.sourceforge.net/DTD/sodipodi-0.dtd"
   xmlns:inkscape="http://www.inkscape.org/namespaces/inkscape"
   id="svg7384"
   height="16"
   width="16"
   version="1.1"
   inkscape:version="0.92.2 (unknown)"
   sodipodi:docname="application-exit-symbolic.svg">
  <defs
     id="defs3124">
    <linearGradient
       id="linearGradient8054">
      <stop
         style="stop-color:#de4814;stop-opacity:1;"
         offset="0"
         id="stop8056" />
      <stop
         style="stop-color:#ff6000;stop-opacity:1;"
         offset="1"
         id="stop8058" />
    </linearGradient>
    <filter
       style="color-interpolation-filters:sRGB"
       id="filter7554">
      <feBlend
         mode="darken"
         in2="BackgroundImage"
         id="feBlend7556" />
    </filter>
  </defs>
  <sodipodi:namedview
     pagecolor="#ffffff"
     bordercolor="#666666"
     borderopacity="1"
     objecttolerance="10"
     gridtolerance="10"
     guidetolerance="10"
     inkscape:pageopacity="0"
     inkscape:pageshadow="2"
     inkscape:window-width="1317"
     inkscape:window-height="716"
     id="namedview3122"
     showgrid="false"
     inkscape:zoom="22.627417"
     inkscape:cx="15.400897"
     inkscape:cy="6.1407267"
     inkscape:window-x="49"
     inkscape:window-y="27"
     inkscape:window-maximized="1"
     inkscape:current-layer="svg7384"
     inkscape:snap-global="false"
     inkscape:snap-bbox="true">
    <inkscape:grid
       type="xygrid"
       id="grid2986" />
  </sodipodi:namedview>
  <metadata
     id="metadata90">
    <rdf:RDF>
      <cc:Work
         rdf:about="">
        <dc:format>image/svg+xml</dc:format>
        <dc:type
           rdf:resource="http://purl.org/dc/dcmitype/StillImage" />
        <dc:title>Gnome Symbolic Icon Theme</dc:title>
      </cc:Work>
    </rdf:RDF>
  </metadata>
  <title
     id="title9167">Gnome Symbolic Icon Theme</title>
  <g
     style="fill:#bebebe;fill-opacity:1;enable-background:new"
     id="g1864"
     transform="translate(0.5008,-1.1999983e-4)">
    <g
       transform="translate(-545,-81)"
       id="layer12"
       style="fill:#bebebe;fill-opacity:1">
      <path
         style="fill:#bebebe;fill-opacity:1"
         d="M 3.0625 1.8125 C 2.647 1.8125 2.3125 2.230625 2.3125 2.75 L 2.3125 5.9960938 L 3.5 6 L 3.5 3 L 13.5 3 L 13.5 13 L 3.5 13 L 3.5 10 L 2.3125 9.9960938 L 2.3125 13.25 C 2.3125 13.769375 2.647 14.1875 3.0625 14.1875 L 13.9375 14.1875 C 14.353 14.1875 14.6875 13.769375 14.6875 13.25 L 14.6875 2.75 C 14.6875 2.230625 14.353 1.8125 13.9375 1.8125 L 3.0625 1.8125 z "
         transform="translate(544.4992,81.00012)"
         id="rect11143" />
      <path
         style="fill:#bebebe;fill-opacity:1"
         d="m 552.21094,85.53125 -0.85547,0.855469 1.36914,1.36914 a 0.37503574,0.37503574 0 0 1 -0.26758,0.640625 l -7.08398,-0.01953 v 1.25 l 7.08789,0.01953 a 0.37503574,0.37503574 0 0 1 0.26367,0.640625 l -1.36914,1.367188 0.85547,0.855469 3.4707,-3.507813 z"
         id="path4765-2" />
    </g>
  </g>
</svg>
